Simply-Red-Circles/scalable/apps/application-community.svg

<svg xmlns="http://www.w3.org/2000/svg" width="48" height="48" viewBox="0 0 12.7 12.7"><path fill="#a02c2c" d="M6.344.077A6.267 6.267 0 0 0 .076 6.344a6.267 6.267 0 0 0 6.268 6.267 6.267 6.267 0 0 0 6.267-6.267A6.267 6.267 0 0 0 6.344.077zm-.018.932a5.388 5.388 0 0 1 5.388 5.39 5.388 5.388 0 0 1-5.388 5.387A5.388 5.388 0 0 1 .937 6.398a5.388 5.388 0 0 1 5.39-5.389zm1.796 2.45v.002c-.538-.01-1.103.198-1.626.737a.216.223 0 0 1-.29.012c-.536-.475-1.062-.696-1.544-.738a2.04 2.04 0 0 0-.47.012c-.998.153-1.752 1.09-1.761 2.215-.008.903.222 1.45.862 2.146.616.671 1.644 1.475 3.113 2.717C7.81 9.226 8.823 8.331 9.452 7.628c.652-.729.91-1.242.916-1.985.007-.766-.551-1.57-1.32-1.947a2.203 2.203 0 0 0-.926-.236z"/></svg>

<?xml version="1.0" encoding="UTF-8" standalone="no"?>
<svg
   xmlns:dc="http://purl.org/dc/elements/1.1/"
   xmlns:cc="http://creativecommons.org/ns#"
   xmlns:rdf="http://www.w3.org/1999/02/22-rdf-syntax-ns#"
   xmlns:svg="http://www.w3.org/2000/svg"
   xmlns="http://www.w3.org/2000/svg"
   xmlns:sodipodi="http://sodipodi.sourceforge.net/DTD/sodipodi-0.dtd"
   xmlns:inkscape="http://www.inkscape.org/namespaces/inkscape"
   width="48"
   height="48"
   viewBox="0 0 12.7 12.7"
   version="1.1"
   id="svg4"
   sodipodi:docname="application-community.svg"
   inkscape:version="0.92.4 (5da689c313, 2019-01-14)">
  <metadata
     id="metadata10">
    <rdf:RDF>
      <cc:Work
         rdf:about="">
        <dc:format>image/svg+xml</dc:format>
        <dc:type
           rdf:resource="http://purl.org/dc/dcmitype/StillImage" />
        <dc:title></dc:title>
      </cc:Work>
    </rdf:RDF>
  </metadata>
  <defs
     id="defs8" />
  <sodipodi:namedview
     pagecolor="#ffffff"
     bordercolor="#666666"
     borderopacity="1"
     objecttolerance="10"
     gridtolerance="10"
     guidetolerance="10"
     inkscape:pageopacity="0"
     inkscape:pageshadow="2"
     inkscape:window-width="1087"
     inkscape:window-height="480"
     id="namedview6"
     showgrid="false"
     inkscape:zoom="4.9166667"
     inkscape:cx="2.1355932"
     inkscape:cy="24"
     inkscape:window-x="0"
     inkscape:window-y="25"
     inkscape:window-maximized="0"
     inkscape:current-layer="svg4" />
  <path
     d="M 6.344,0.077 A 6.267,6.267 0 0 0 0.076,6.344 6.267,6.267 0 0 0 6.344,12.611 6.267,6.267 0 0 0 12.611,6.344 6.267,6.267 0 0 0 6.344,0.077 Z M 6.326,1.009 a 5.388,5.388 0 0 1 5.388,5.39 5.388,5.388 0 0 1 -5.388,5.387 5.388,5.388 0 0 1 -5.389,-5.388 5.388,5.388 0 0 1 5.39,-5.389 z m 1.796,2.45 V 3.461 C 7.584,3.451 7.019,3.659 6.496,4.198 A 0.216,0.223 0 0 1 6.206,4.21 C 5.67,3.735 5.144,3.514 4.662,3.472 A 2.04,2.04 0 0 0 4.192,3.484 C 3.194,3.637 2.44,4.574 2.431,5.699 2.423,6.602 2.653,7.149 3.293,7.845 3.909,8.516 4.937,9.32 6.406,10.562 7.81,9.226 8.823,8.331 9.452,7.628 10.104,6.899 10.362,6.386 10.368,5.643 10.375,4.877 9.817,4.073 9.048,3.696 A 2.203,2.203 0 0 0 8.122,3.46 Z"
     id="path2"
     inkscape:connector-curvature="0"
     style="fill:#a02c2c" />
</svg>
